svg/u1f430.svg

<svg viewBox="0 0 128 128" xmlns="http://www.w3.org/2000/svg">
  <path d="M61.32,52.97c0,0,1.31-0.28,3.1-0.28s3.57,0.47,3.57,0.47s4.04-5.73,4.97-13.98s0.94-17.36,3.85-24.5 c2.91-7.13,7.6-9.67,12.01-9.01s14.12,8.31,11.36,28.72C98.2,48.93,87.59,55.85,88.91,66.29c1.13,8.92,6.48,15.77,8.73,20.46 c2.25,4.69,6.66,12.76-0.94,23.56c-7.8,11.07-24.59,13.33-32.29,13.14c-7.7-0.19-20.52-0.85-30.88-9.76 c-4.69-4.04-7.6-9.48-7.32-17.64c0.28-8.17,6.85-16.52,9.1-20.65s4.97-7.13,4.88-11.26c-0.09-4.13-5.91-15.77-7.51-23.56 c-1.6-7.79-7.32-32.66,13.05-36.13c11.16-1.9,8.63,18.21,10.98,31.07C59.07,48.37,61.32,52.97,61.32,52.97z" fill="#B5C2C8"/>
  <path d="M78.68,54.47c4.42,2.92,7.39-3.7,8.45-6.38c1.6-4.04,5.16-11.26,5.35-19.99 c0.15-7.14-0.28-13.23-5.44-13.05c-5.16,0.19-4.97,8.54-4.88,11.36c0.14,4.32-0.95,10.55-2.06,14.92 C78.48,47.68,74.27,51.56,78.68,54.47z" fill="#FEACA9"/>
  <path d="M44.99,14.11c-4.5-0.56-7.13,6.1-6.57,12.95s2.82,17.36,5.35,22.15c2.53,4.79,3.85,5.91,6.95,5.07 c3.1-0.84,0.94-6.38,0.66-8.26c-0.28-1.88-2.63-13.98-2.63-19.52S49.56,14.68,44.99,14.11z" fill="#FEACA9"/>
  <path d="M64.98,60.19c4.51,0,2.32,8.85,3.45,13.73c1.13,4.88,5.35,9.2,8.66,12.67 c4.15,4.36,9.1,13.63,8.17,19.36c-0.94,5.73-3.87,14.22-20.74,14.03c-14.59-0.16-20.93-4.6-21.21-15.09 c-0.26-9.8,6.41-16.68,8.8-18.65s5.84-5.42,7.39-9.43c1.55-4.01,1.97-8.09,2.11-10.28C61.74,64.35,61.25,60.19,64.98,60.19z" fill="#FFFFFF"/>
  <path d="M52.45,75.68c0,3.75-0.77,6.76-4.36,6.76c-2.6,0-3.87-2.69-3.87-6.44s1.34-6.58,4.15-6.37 C51.21,69.84,52.45,71.93,52.45,75.68z" fill="#2F2F2D"/>
  <path d="M84.05,76.45c0,3.75-0.63,6.55-4.22,6.55c-2.6,0-3.8-3.15-3.8-6.9s0.77-5.91,3.59-5.91 C82.37,70.19,84.05,72.7,84.05,76.45z" fill="#2F2F2D"/>
  <path d="M64.93,107.19l-4.97,2.16c0,0,0.02,3.36,2.28,3.33c1.7-0.03,2.27-1.06,2.27-1.06s0.85,1.09,2.76,1.06 c2.26-0.04,2.05-2.87,2.05-2.87L64.93,107.19z" fill="#FFD792"/>
  <path d="M69.25,102.47l-9.9,1.17c0,0,0.47,5.73,0.68,6.22s0.56,1.13,2.11,1.27c1.55,0.14,2.39-1.06,2.39-1.06 s0.57,1.11,2.22,1.25c1.02,0.09,2.43-0.3,2.6-1.02c0.29-1.2,0.19-2.26,0.18-4.03C69.52,104.71,69.25,102.47,69.25,102.47z" fill="#FEE2B3"/>
  <path d="M64.32,92.85c0,0,4.67-5.86,6.29-3.85c1.9,2.36-4.88,7.13-4.88,7.13s0.24,3.7,0.55,3.97 c2.75,2.36,5.07-0.32,5.35-0.6c0.28-0.28,1.9-1.51,2.96-0.18s-1.02,5.95-5.14,6.23c-4.12,0.28-5-2.04-5-2.04s-0.63,2.64-5.35,2.43 s-5.31-5.35-4.26-6.12c1.06-0.77,1.42-0.71,3.59,1.13c1.37,1.16,3.87,0.18,4.01-1.09c0.07-0.6-0.04-3.77-0.04-3.77 s-7.6-4.65-5.53-7.11C58.96,86.52,64.32,92.85,64.32,92.85z" fill="#2C2C2C"/>
  <path d="M36.35,95.53c-0.19,0-0.38-0.04-0.57-0.11l0,0c-0.04-0.01-3.87-1.56-8.25-1.44 c-4.76,0.14-7.21,0.83-7.23,0.83c-0.8,0.23-1.63-0.23-1.86-1.02c-0.23-0.79,0.22-1.62,1.02-1.86c0.11-0.03,2.78-0.8,7.98-0.95 c5.05-0.16,9.31,1.59,9.49,1.66c0.77,0.32,1.13,1.19,0.81,1.96C37.5,95.18,36.94,95.53,36.35,95.53z" fill="#838584"/>
  <path d="M20.17,105.71c-0.44,0-0.88-0.19-1.18-0.57c-0.52-0.65-0.41-1.59,0.24-2.11 c0.14-0.11,3.49-2.75,7.84-3.85c4.27-1.08,9.14-0.76,9.34-0.75c0.83,0.06,1.45,0.77,1.39,1.6c-0.06,0.83-0.76,1.47-1.6,1.39 c-0.04,0-4.61-0.3-8.4,0.66c-3.73,0.94-6.68,3.26-6.71,3.29C20.82,105.6,20.49,105.71,20.17,105.71z" fill="#838584"/>
  <path d="M24.67,113.73c-0.38,0-0.77-0.15-1.06-0.44c-0.59-0.59-0.59-1.54,0-2.12 c0.1-0.1,2.58-2.58,4.65-4.17c2.17-1.67,6.72-3.38,6.91-3.45c0.78-0.29,1.64,0.1,1.93,0.88c0.29,0.78-0.1,1.64-0.88,1.93 c-1.2,0.45-4.63,1.87-6.14,3.02c-1.91,1.47-4.33,3.88-4.36,3.91C25.44,113.59,25.05,113.73,24.67,113.73z" fill="#838584"/>
  <path d="M90.65,95.95c-0.66,0-1.27-0.44-1.45-1.11c-0.22-0.8,0.25-1.62,1.05-1.84 c0.18-0.05,4.39-1.18,8.46-1.32c4.43-0.15,8.1,1.01,8.25,1.06c0.79,0.25,1.22,1.09,0.97,1.88c-0.25,0.79-1.1,1.22-1.88,0.97 c-0.03-0.01-3.34-1.04-7.24-0.92c-3.71,0.12-7.74,1.21-7.78,1.22C90.91,95.93,90.78,95.95,90.65,95.95z" fill="#838584"/>
  <path d="M106.04,104.26c-0.33,0-0.67-0.11-0.95-0.34c-0.01-0.01-1.96-1.54-5.91-2.47 c-3.82-0.9-7.61-0.58-7.65-0.58c-0.81,0.07-1.55-0.54-1.62-1.36c-0.07-0.83,0.54-1.55,1.36-1.62c0.17-0.02,4.31-0.36,8.59,0.64 c4.7,1.1,7.04,2.99,7.13,3.07c0.64,0.53,0.73,1.47,0.21,2.11C106.9,104.07,106.47,104.26,106.04,104.26z" fill="#838584"/>
  <path d="M103.36,111.62c-0.35,0-0.7-0.12-0.98-0.37c-0.03-0.02-2.75-2.37-5.29-3.58 c-2.43-1.15-5.96-1.22-5.99-1.22c-0.83-0.01-1.49-0.69-1.48-1.52c0.01-0.82,0.68-1.48,1.5-1.48c0.01,0,0.01,0,0.02,0 c0.17,0,4.21,0.07,7.24,1.5c2.92,1.39,5.85,3.92,5.97,4.02c0.63,0.54,0.69,1.49,0.15,2.12 C104.2,111.45,103.78,111.62,103.36,111.62z" fill="#838584"/>
</svg>

<svg viewBox="0 0 128 128" xmlns="http://www.w3.org/2000/svg">
  <defs/>
  <path d="M61.32,52.97 C61.32,52.97 62.63,52.69 64.42,52.69 C66.21,52.69 67.99,53.16 67.99,53.16 C67.99,53.16 72.03,47.43 72.96,39.18 C73.89,30.93 73.9,21.82 76.81,14.68 C79.72,7.55 84.41,5.01 88.82,5.67 C93.23,6.33 102.94,13.98 100.18,34.39 C98.2,48.93 87.59,55.85 88.91,66.29 C90.04,75.21 95.39,82.06 97.64,86.75 C99.89,91.44 104.3,99.51 96.7,110.31 C88.9,121.38 72.11,123.64 64.41,123.45 C56.71,123.26 43.89,122.6 33.53,113.69 C28.84,109.65 25.93,104.21 26.21,96.05 C26.49,87.88 33.06,79.53 35.31,75.4 C37.56,71.27 40.28,68.27 40.19,64.14 C40.1,60.01 34.28,48.37 32.68,40.58 C31.08,32.79 25.36,7.92 45.73,4.45 C56.89,2.55 54.36,22.66 56.71,35.52 C59.07,48.37 61.32,52.97 61.32,52.97 Z" fill="#B5C2C8"/>
  <path d="M78.68,54.47 C83.1,57.39 86.07,50.77 87.13,48.09 C88.73,44.05 92.29,36.83 92.48,28.1 C92.63,20.96 92.2,14.87 87.04,15.05 C81.88,15.24 82.07,23.59 82.16,26.41 C82.3,30.73 81.21,36.96 80.1,41.33 C78.48,47.68 74.27,51.56 78.68,54.47 Z" fill="#FEACA9"/>
  <path d="M44.99,14.11 C40.49,13.55 37.86,20.21 38.42,27.06 C38.98,33.91 41.24,44.42 43.77,49.21 C46.3,54 47.62,55.12 50.72,54.28 C53.82,53.44 51.66,47.9 51.38,46.02 C51.1,44.14 48.75,32.04 48.75,26.5 C48.75,20.96 49.56,14.68 44.99,14.11 Z" fill="#FEACA9"/>
  <path d="M64.98,60.19 C69.49,60.19 67.3,69.04 68.43,73.92 C69.56,78.8 73.78,83.12 77.09,86.59 C81.24,90.95 86.19,100.22 85.26,105.95 C84.32,111.68 81.39,120.17 64.52,119.98 C49.93,119.82 43.59,115.38 43.31,104.89 C43.05,95.09 49.72,88.21 52.11,86.24 C54.5,84.27 57.95,80.82 59.5,76.81 C61.05,72.8 61.47,68.72 61.61,66.53 C61.74,64.35 61.25,60.19 64.98,60.19 Z" fill="#FFFFFF"/>
  <path d="M52.45,75.68 C52.45,79.43 51.68,82.44 48.09,82.44 C45.49,82.44 44.22,79.75 44.22,76 C44.22,72.25 45.56,69.42 48.37,69.63 C51.21,69.84 52.45,71.93 52.45,75.68 Z" fill="#2F2F2D"/>
  <path d="M84.05,76.45 C84.05,80.2 83.42,83 79.83,83 C77.23,83 76.03,79.85 76.03,76.1 C76.03,72.35 76.8,70.19 79.62,70.19 C82.37,70.19 84.05,72.7 84.05,76.45 Z" fill="#2F2F2D"/>
  <path d="M64.93,107.19 L59.96,109.35 C59.96,109.35 59.98,112.71 62.24,112.68 C63.94,112.65 64.51,111.62 64.51,111.62 C64.51,111.62 65.36,112.71 67.27,112.68 C69.53,112.64 69.32,109.81 69.32,109.81 L64.93,107.19 Z" fill="#FFD792"/>
  <path d="M69.25,102.47 L59.35,103.64 C59.35,103.64 59.82,109.37 60.03,109.86 C60.24,110.35 60.59,110.99 62.14,111.13 C63.69,111.27 64.53,110.07 64.53,110.07 C64.53,110.07 65.1,111.18 66.75,111.32 C67.77,111.41 69.18,111.02 69.35,110.3 C69.64,109.1 69.54,108.04 69.53,106.27 C69.52,104.71 69.25,102.47 69.25,102.47 Z" fill="#FEE2B3"/>
  <path d="M64.32,92.85 C64.32,92.85 68.99,86.99 70.61,89 C72.51,91.36 65.73,96.13 65.73,96.13 C65.73,96.13 65.97,99.83 66.28,100.1 C69.03,102.46 71.35,99.78 71.63,99.5 C71.91,99.22 73.53,97.99 74.59,99.32 C75.65,100.65 73.57,105.27 69.45,105.55 C65.33,105.83 64.45,103.51 64.45,103.51 C64.45,103.51 63.82,106.15 59.1,105.94 C54.38,105.73 53.79,100.59 54.84,99.82 C55.9,99.05 56.26,99.11 58.43,100.95 C59.8,102.11 62.3,101.13 62.44,99.86 C62.51,99.26 62.4,96.09 62.4,96.09 C62.4,96.09 54.8,91.44 56.87,88.98 C58.96,86.52 64.32,92.85 64.32,92.85 Z" fill="#2C2C2C"/>
  <path d="M36.35,95.53 C36.16,95.53 35.97,95.49 35.78,95.42 L35.78,95.42 C35.74,95.41 31.91,93.86 27.53,93.98 C22.77,94.12 20.32,94.81 20.3,94.81 C19.5,95.04 18.67,94.58 18.44,93.79 C18.21,93 18.66,92.17 19.46,91.93 C19.57,91.9 22.24,91.13 27.44,90.98 C32.49,90.82 36.75,92.57 36.93,92.64 C37.7,92.96 38.06,93.83 37.74,94.6 C37.5,95.18 36.94,95.53 36.35,95.53 Z" fill="#838584"/>
  <path d="M20.17,105.71 C19.73,105.71 19.29,105.52 18.99,105.14 C18.47,104.49 18.58,103.55 19.23,103.03 C19.37,102.92 22.72,100.28 27.07,99.18 C31.34,98.1 36.21,98.42 36.41,98.43 C37.24,98.49 37.86,99.2 37.8,100.03 C37.74,100.86 37.04,101.5 36.2,101.42 C36.16,101.42 31.59,101.12 27.8,102.08 C24.07,103.02 21.12,105.34 21.09,105.37 C20.82,105.6 20.49,105.71 20.17,105.71 Z" fill="#838584"/>
  <path d="M24.67,113.73 C24.29,113.73 23.9,113.58 23.61,113.29 C23.02,112.7 23.02,111.75 23.61,111.17 C23.71,111.07 26.19,108.59 28.26,107 C30.43,105.33 34.98,103.62 35.17,103.55 C35.95,103.26 36.81,103.65 37.1,104.43 C37.39,105.21 37,106.07 36.22,106.36 C35.02,106.81 31.59,108.23 30.08,109.38 C28.17,110.85 25.75,113.26 25.72,113.29 C25.44,113.59 25.05,113.73 24.67,113.73 Z" fill="#838584"/>
  <path d="M90.65,95.95 C89.99,95.95 89.38,95.51 89.2,94.84 C88.98,94.04 89.45,93.22 90.25,93 C90.43,92.95 94.64,91.82 98.71,91.68 C103.14,91.53 106.81,92.69 106.96,92.74 C107.75,92.99 108.18,93.83 107.93,94.62 C107.68,95.41 106.83,95.84 106.05,95.59 C106.02,95.58 102.71,94.55 98.81,94.67 C95.1,94.79 91.07,95.88 91.03,95.89 C90.91,95.93 90.78,95.95 90.65,95.95 Z" fill="#838584"/>
  <path d="M106.04,104.26 C105.71,104.26 105.37,104.15 105.09,103.92 C105.08,103.91 103.13,102.38 99.18,101.45 C95.36,100.55 91.57,100.87 91.53,100.87 C90.72,100.94 89.98,100.33 89.91,99.51 C89.84,98.68 90.45,97.96 91.27,97.89 C91.44,97.87 95.58,97.53 99.86,98.53 C104.56,99.63 106.9,101.52 106.99,101.6 C107.63,102.13 107.72,103.07 107.2,103.71 C106.9,104.07 106.47,104.26 106.04,104.26 Z" fill="#838584"/>
  <path d="M103.36,111.62 C103.01,111.62 102.66,111.5 102.38,111.25 C102.35,111.23 99.63,108.88 97.09,107.67 C94.66,106.52 91.13,106.45 91.1,106.45 C90.27,106.44 89.61,105.76 89.62,104.93 C89.63,104.11 90.3,103.45 91.12,103.45 C91.13,103.45 91.13,103.45 91.14,103.45 C91.31,103.45 95.35,103.52 98.38,104.95 C101.3,106.34 104.23,108.87 104.35,108.97 C104.98,109.51 105.04,110.46 104.5,111.09 C104.2,111.45 103.78,111.62 103.36,111.62 Z" fill="#838584"/>
</svg>
